icons/breezeDark/actions/22/crosshairs.svg

<svg viewBox="0 0 22 22" xmlns="http://www.w3.org/2000/svg"><path d="m10.5 2v2.0253906a7 7 0 0 0 -6.4824219 6.4746094h-2.0175781v1h2.0253906a7 7 0 0 0 6.4746094 6.482422v2.017578h1v-2.025391a7 7 0 0 0 6.482422-6.474609h2.017578v-1h-2.025391a7 7 0 0 0 -6.474609-6.4824219v-2.0175781zm0 3.0253906v2.0097656a4 4 0 0 0 -3.4628906 3.4648438h-2.0117188a6 6 0 0 1 5.4746094-5.4746094zm1 0a6 6 0 0 1 5.474609 5.4746094h-2.009765a4 4 0 0 0 -3.464844-3.4628906zm-1 3.015625v2.4589844h-2.453125a3 3 0 0 1 2.453125-2.4589844zm1 .0058594a3 3 0 0 1 2.458984 2.453125h-2.458984zm-6.4746094 3.453125h2.0097656a4 4 0 0 0 3.4648438 3.462891v2.011718a6 6 0 0 1 -5.4746094-5.474609zm3.015625 0h2.4589844v2.453125a3 3 0 0 1 -2.4589844-2.453125zm3.4589844 0h2.453125a3 3 0 0 1 -2.453125 2.458984zm3.462891 0h2.011718a6 6 0 0 1 -5.474609 5.474609v-2.009765a4 4 0 0 0 3.462891-3.464844z" fill="#c0c0c0"/></svg>

<svg xmlns="http://www.w3.org/2000/svg" viewBox="0 0 22 22">
  <defs id="defs3051">
    <style type="text/css" id="current-color-scheme">
      .ColorScheme-Text {
        color:#c0c0c0;
      }
      </style>
  </defs>
 <path 
     style="fill:currentColor;fill-opacity:1;stroke:none" 
	 d="M 10.5 2 L 10.5 4.0253906 A 7 7 0 0 0 4.0175781 10.5 L 2 10.5 L 2 11.5 L 4.0253906 11.5 A 7 7 0 0 0 10.5 17.982422 L 10.5 20 L 11.5 20 L 11.5 17.974609 A 7 7 0 0 0 17.982422 11.5 L 20 11.5 L 20 10.5 L 17.974609 10.5 A 7 7 0 0 0 11.5 4.0175781 L 11.5 2 L 10.5 2 z M 10.5 5.0253906 L 10.5 7.0351562 A 4 4 0 0 0 7.0371094 10.5 L 5.0253906 10.5 A 6 6 0 0 1 10.5 5.0253906 z M 11.5 5.0253906 A 6 6 0 0 1 16.974609 10.5 L 14.964844 10.5 A 4 4 0 0 0 11.5 7.0371094 L 11.5 5.0253906 z M 10.5 8.0410156 L 10.5 10.5 L 8.046875 10.5 A 3 3 0 0 1 10.5 8.0410156 z M 11.5 8.046875 A 3 3 0 0 1 13.958984 10.5 L 11.5 10.5 L 11.5 8.046875 z M 5.0253906 11.5 L 7.0351562 11.5 A 4 4 0 0 0 10.5 14.962891 L 10.5 16.974609 A 6 6 0 0 1 5.0253906 11.5 z M 8.0410156 11.5 L 10.5 11.5 L 10.5 13.953125 A 3 3 0 0 1 8.0410156 11.5 z M 11.5 11.5 L 13.953125 11.5 A 3 3 0 0 1 11.5 13.958984 L 11.5 11.5 z M 14.962891 11.5 L 16.974609 11.5 A 6 6 0 0 1 11.5 16.974609 L 11.5 14.964844 A 4 4 0 0 0 14.962891 11.5 z "
	 class="ColorScheme-Text"
     />
</svg>
